zy71366/tests/debug-files/dup.cube
# LUT File
TITLE "Test LUT - dup.cube"
LUT_3D_SIZE 33
DOMAIN_MIN 0.0 0.0 0.0
DOMAIN_MAX 1.0 1.0 1.0
0.101000 0.101000 0.101000
0.101000 0.053000 0.084250
0.101000 0.102000 0.164500
0.101000 0.051000 0.144750
0.101000 0.053000 0.178000
0.101000 0.098000 0.254250
0.101000 0.098000 0.285500
0.101000 0.056000 0.274750
0.101000 0.055000 0.305000
0.101000 0.052000 0.333250
0.101000 0.100000 0.412500
0.101000 0.054000 0.397750
0.101000 0.100000 0.475000
0.101000 0.053000 0.459250
0.101000 0.100000 0.537500
0.101000 0.057000 0.525750
0.101000 0.049000 0.549000
0.101000 0.051000 0.582250
0.101000 0.048000 0.610500
0.101000 0.051000 0.644750
0.101000 0.052000 0.677000
0.101000 0.052000 0.708250
0.101000 0.097000 0.784500
0.101000 0.057000 0.775750
0.101000 0.055000 0.805000
0.101000 0.099000 0.880250
0.101000 0.053000 0.865500
0.101000 0.054000 0.897750
0.101000 0.049000 0.924000
0.101000 0.098000 1.004250
0.101000 0.101000 1.038500
0.101000 0.102000 1.070750
0.101000 0.101000 1.101000
0.053000 0.084250 0.101000
0.053000 0.133250 0.084250
0.053000 0.082250 0.164500
0.053000 0.084250 0.144750
0.053000 0.129250 0.178000
0.053000 0.129250 0.254250
0.053000 0.087250 0.285500
0.053000 0.086250 0.274750
0.053000 0.083250 0.305000
0.053000 0.131250 0.333250
0.053000 0.085250 0.412500
0.053000 0.131250 0.397750
0.053000 0.084250 0.475000
0.053000 0.131250 0.459250
0.053000 0.088250 0.537500
0.053000 0.080250 0.525750
0.053000 0.082250 0.549000
0.053000 0.079250 0.582250
0.053000 0.082250 0.610500
0.053000 0.083250 0.644750
0.053000 0.083250 0.677000
0.053000 0.128250 0.708250
0.053000 0.088250 0.784500
0.053000 0.086250 0.775750
0.053000 0.130250 0.805000
0.053000 0.084250 0.880250
0.053000 0.085250 0.865500
0.053000 0.080250 0.897750
0.053000 0.129250 0.924000
0.053000 0.132250 1.004250
0.053000 0.133250 1.038500
0.053000 0.132250 1.070750
0.053000 0.084250 1.101000
0.102000 0.164500 0.101000
0.102000 0.113500 0.084250
0.102000 0.115500 0.164500
0.102000 0.160500 0.144750
0.102000 0.160500 0.178000
0.102000 0.118500 0.254250
0.102000 0.117500 0.285500
0.102000 0.114500 0.274750
0.102000 0.162500 0.305000
0.102000 0.116500 0.333250
0.102000 0.162500 0.412500
0.102000 0.115500 0.397750
0.102000 0.162500 0.475000
0.102000 0.119500 0.459250
0.102000 0.111500 0.537500
0.102000 0.113500 0.525750
0.102000 0.110500 0.549000
0.102000 0.113500 0.582250
0.102000 0.114500 0.610500
0.102000 0.114500 0.644750
0.102000 0.159500 0.677000
0.102000 0.119500 0.708250
0.102000 0.117500 0.784500
0.102000 0.161500 0.775750
0.102000 0.115500 0.805000
0.102000 0.116500 0.880250
0.102000 0.111500 0.865500
0.102000 0.160500 0.897750
0.102000 0.163500 0.924000
0.102000 0.164500 1.004250
0.102000 0.163500 1.038500
0.102000 0.115500 1.070750
0.102000 0.164500 1.101000
0.051000 0.144750 0.101000
0.051000 0.146750 0.084250
0.051000 0.191750 0.164500
0.051000 0.191750 0.144750
0.051000 0.149750 0.178000
0.051000 0.148750 0.254250
0.051000 0.145750 0.285500
0.051000 0.193750 0.274750
0.051000 0.147750 0.305000
0.051000 0.193750 0.333250
0.051000 0.146750 0.412500
0.051000 0.193750 0.397750
0.051000 0.150750 0.475000
0.051000 0.142750 0.459250
0.051000 0.144750 0.537500
0.051000 0.141750 0.525750
0.051000 0.144750 0.549000
0.051000 0.145750 0.582250
0.051000 0.145750 0.610500
0.051000 0.190750 0.644750
0.051000 0.150750 0.677000
0.051000 0.148750 0.708250
0.051000 0.192750 0.784500
0.051000 0.146750 0.775750
0.051000 0.147750 0.805000
0.051000 0.142750 0.880250
0.051000 0.191750 0.865500
0.051000 0.194750 0.897750
0.051000 0.195750 0.924000
0.051000 0.194750 1.004250
0.051000 0.146750 1.038500
0.051000 0.195750 1.070750
0.051000 0.144750 1.101000
0.053000 0.178000 0.101000
0.053000 0.223000 0.084250
0.053000 0.223000 0.164500
0.053000 0.181000 0.144750
0.053000 0.180000 0.178000
0.053000 0.177000 0.254250
0.053000 0.225000 0.285500
0.053000 0.179000 0.274750
0.053000 0.225000 0.305000
0.053000 0.178000 0.333250
0.053000 0.225000 0.412500
0.053000 0.182000 0.397750
0.053000 0.174000 0.475000
0.053000 0.176000 0.459250
0.053000 0.173000 0.537500
0.053000 0.176000 0.525750
0.053000 0.177000 0.549000
0.053000 0.177000 0.582250
0.053000 0.222000 0.610500
0.053000 0.182000 0.644750
0.053000 0.180000 0.677000
0.053000 0.224000 0.708250
0.053000 0.178000 0.784500
0.053000 0.179000 0.775750
0.053000 0.174000 0.805000
0.053000 0.223000 0.880250
0.053000 0.226000 0.865500
0.053000 0.227000 0.897750
0.053000 0.226000 0.924000
0.053000 0.178000 1.004250
0.053000 0.227000 1.038500
0.053000 0.176000 1.070750
0.053000 0.178000 1.101000
0.098000 0.254250 0.101000
0.098000 0.254250 0.084250
0.098000 0.212250 0.164500
0.098000 0.211250 0.144750
0.098000 0.208250 0.178000
0.098000 0.256250 0.254250
0.098000 0.210250 0.285500
0.098000 0.256250 0.274750
0.098000 0.209250 0.305000
0.098000 0.256250 0.333250
0.098000 0.213250 0.412500
0.098000 0.205250 0.397750
0.098000 0.207250 0.475000
0.098000 0.204250 0.459250
0.098000 0.207250 0.537500
0.098000 0.208250 0.525750
0.098000 0.208250 0.549000
0.098000 0.253250 0.582250
0.098000 0.213250 0.610500
0.098000 0.211250 0.644750
0.098000 0.255250 0.677000
0.098000 0.209250 0.708250
0.098000 0.210250 0.784500
0.098000 0.205250 0.775750
0.098000 0.254250 0.805000
0.098000 0.257250 0.880250
0.098000 0.258250 0.865500
0.098000 0.257250 0.897750
0.098000 0.209250 0.924000
0.098000 0.258250 1.004250
0.098000 0.207250 1.038500
0.098000 0.209250 1.070750
0.098000 0.254250 1.101000
0.098000 0.285500 0.101000
0.098000 0.243500 0.084250
0.098000 0.242500 0.164500
0.098000 0.239500 0.144750
0.098000 0.287500 0.178000
0.098000 0.241500 0.254250
0.098000 0.287500 0.285500
0.098000 0.240500 0.274750
0.098000 0.287500 0.305000
0.098000 0.244500 0.333250
0.098000 0.236500 0.412500
0.098000 0.238500 0.397750
0.098000 0.235500 0.475000
0.098000 0.238500 0.459250
0.098000 0.239500 0.537500
0.098000 0.239500 0.525750
0.098000 0.284500 0.549000
0.098000 0.244500 0.582250
0.098000 0.242500 0.610500
0.098000 0.286500 0.644750
0.098000 0.240500 0.677000
0.098000 0.241500 0.708250
0.098000 0.236500 0.784500
0.098000 0.285500 0.775750
0.098000 0.288500 0.805000
0.098000 0.289500 0.880250
0.098000 0.288500 0.865500
0.098000 0.240500 0.897750
0.098000 0.289500 0.924000
0.098000 0.238500 1.004250
0.098000 0.240500 1.038500
0.098000 0.285500 1.070750
0.098000 0.285500 1.101000
0.056000 0.274750 0.101000
0.056000 0.273750 0.084250
0.056000 0.270750 0.164500
0.056000 0.318750 0.144750
0.056000 0.272750 0.178000
0.056000 0.318750 0.254250
0.056000 0.271750 0.285500
0.056000 0.318750 0.274750
0.056000 0.275750 0.305000
0.056000 0.267750 0.333250
0.056000 0.269750 0.412500
0.056000 0.266750 0.397750
0.056000 0.269750 0.475000
0.056000 0.270750 0.459250
0.056000 0.270750 0.537500
0.056000 0.315750 0.525750
0.056000 0.275750 0.549000
0.056000 0.273750 0.582250
0.056000 0.317750 0.610500
0.056000 0.271750 0.644750
0.056000 0.272750 0.677000
0.056000 0.267750 0.708250
0.056000 0.316750 0.784500
0.056000 0.319750 0.775750
0.056000 0.320750 0.805000
0.056000 0.319750 0.880250
0.056000 0.271750 0.865500
0.056000 0.320750 0.897750
0.056000 0.269750 0.924000
0.056000 0.271750 1.004250
0.056000 0.316750 1.038500
0.056000 0.316750 1.070750
0.056000 0.274750 1.101000
0.055000 0.305000 0.101000
0.055000 0.302000 0.084250
0.055000 0.350000 0.164500
0.055000 0.304000 0.144750
0.055000 0.350000 0.178000
0.055000 0.303000 0.254250
0.055000 0.350000 0.285500
0.055000 0.307000 0.274750
0.055000 0.299000 0.305000
0.055000 0.301000 0.333250
0.055000 0.298000 0.412500
0.055000 0.301000 0.397750
0.055000 0.302000 0.475000
0.055000 0.302000 0.459250
0.055000 0.347000 0.537500
0.055000 0.307000 0.525750
0.055000 0.305000 0.549000
0.055000 0.349000 0.582250
0.055000 0.303000 0.610500
0.055000 0.304000 0.644750
0.055000 0.299000 0.677000
0.055000 0.348000 0.708250
0.055000 0.351000 0.784500
0.055000 0.352000 0.775750
0.055000 0.351000 0.805000
0.055000 0.303000 0.880250
0.055000 0.352000 0.865500
0.055000 0.301000 0.897750
0.055000 0.303000 0.924000
0.055000 0.348000 1.004250
0.055000 0.348000 1.038500
0.055000 0.306000 1.070750
0.055000 0.305000 1.101000
0.052000 0.333250 0.101000
0.052000 0.381250 0.084250
0.052000 0.335250 0.164500
0.052000 0.381250 0.144750
0.052000 0.334250 0.178000
0.052000 0.381250 0.254250
0.052000 0.338250 0.285500
0.052000 0.330250 0.274750
0.052000 0.332250 0.305000
0.052000 0.329250 0.333250
0.052000 0.332250 0.412500
0.052000 0.333250 0.397750
0.052000 0.333250 0.475000
0.052000 0.378250 0.459250
0.052000 0.338250 0.537500
0.052000 0.336250 0.525750
0.052000 0.380250 0.549000
0.052000 0.334250 0.582250
0.052000 0.335250 0.610500
0.052000 0.330250 0.644750
0.052000 0.379250 0.677000
0.052000 0.382250 0.708250
0.052000 0.383250 0.784500
0.052000 0.382250 0.775750
0.052000 0.334250 0.805000
0.052000 0.383250 0.880250
0.052000 0.332250 0.865500
0.052000 0.334250 0.897750
0.052000 0.379250 0.924000
0.052000 0.379250 1.004250
0.052000 0.337250 1.038500
0.052000 0.336250 1.070750
0.052000 0.333250 1.101000
0.100000 0.412500 0.101000
0.100000 0.366500 0.084250
0.100000 0.412500 0.164500
0.100000 0.365500 0.144750
0.100000 0.412500 0.178000
0.100000 0.369500 0.254250
0.100000 0.361500 0.285500
0.100000 0.363500 0.274750
0.100000 0.360500 0.305000
0.100000 0.363500 0.333250
0.100000 0.364500 0.412500
0.100000 0.364500 0.397750
0.100000 0.409500 0.475000
0.100000 0.369500 0.459250
0.100000 0.367500 0.537500
0.100000 0.411500 0.525750
0.100000 0.365500 0.549000
0.100000 0.366500 0.582250
0.100000 0.361500 0.610500
0.100000 0.410500 0.644750
0.100000 0.413500 0.677000
0.100000 0.414500 0.708250
0.100000 0.413500 0.784500
0.100000 0.365500 0.775750
0.100000 0.414500 0.805000
0.100000 0.363500 0.880250
0.100000 0.365500 0.865500
0.100000 0.410500 0.897750
0.100000 0.410500 0.924000
0.100000 0.368500 1.004250
0.100000 0.367500 1.038500
0.100000 0.364500 1.070750
0.100000 0.412500 1.101000
0.054000 0.397750 0.101000
0.054000 0.443750 0.084250
0.054000 0.396750 0.164500
0.054000 0.443750 0.144750
0.054000 0.400750 0.178000
0.054000 0.392750 0.254250
0.054000 0.394750 0.285500
0.054000 0.391750 0.274750
0.054000 0.394750 0.305000
0.054000 0.395750 0.333250
0.054000 0.395750 0.412500
0.054000 0.440750 0.397750
0.054000 0.400750 0.475000
0.054000 0.398750 0.459250
0.054000 0.442750 0.537500
0.054000 0.396750 0.525750
0.054000 0.397750 0.549000
0.054000 0.392750 0.582250
0.054000 0.441750 0.610500
0.054000 0.444750 0.644750
0.054000 0.445750 0.677000
0.054000 0.444750 0.708250
0.054000 0.396750 0.784500
0.054000 0.445750 0.775750
0.054000 0.394750 0.805000
0.054000 0.396750 0.880250
0.054000 0.441750 0.865500
0.054000 0.441750 0.897750
0.054000 0.399750 0.924000
0.054000 0.398750 1.004250
0.054000 0.395750 1.038500
0.054000 0.443750 1.070750
0.054000 0.397750 1.101000
0.100000 0.475000 0.101000
0.100000 0.428000 0.084250
0.100000 0.475000 0.164500
0.100000 0.432000 0.144750
0.100000 0.424000 0.178000
0.100000 0.426000 0.254250
0.100000 0.423000 0.285500
0.100000 0.426000 0.274750
0.100000 0.427000 0.305000
0.100000 0.427000 0.333250
0.100000 0.472000 0.412500
0.100000 0.432000 0.397750
0.100000 0.430000 0.475000
0.100000 0.474000 0.459250
0.100000 0.428000 0.537500
0.100000 0.429000 0.525750
0.100000 0.424000 0.549000
0.100000 0.473000 0.582250
0.100000 0.476000 0.610500
0.100000 0.477000 0.644750
0.100000 0.476000 0.677000
0.100000 0.428000 0.708250
0.100000 0.477000 0.784500
0.100000 0.426000 0.775750
0.100000 0.428000 0.805000
0.100000 0.473000 0.880250
0.100000 0.473000 0.865500
0.100000 0.431000 0.897750
0.100000 0.430000 0.924000
0.100000 0.427000 1.004250
0.100000 0.475000 1.038500
0.100000 0.429000 1.070750
0.100000 0.475000 1.101000
0.053000 0.459250 0.101000
0.053000 0.506250 0.084250
0.053000 0.463250 0.164500
0.053000 0.455250 0.144750
0.053000 0.457250 0.178000
0.053000 0.454250 0.254250
0.053000 0.457250 0.285500
0.053000 0.458250 0.274750
0.053000 0.458250 0.305000
0.053000 0.503250 0.333250
0.053000 0.463250 0.412500
0.053000 0.461250 0.397750
0.053000 0.505250 0.475000
0.053000 0.459250 0.459250
0.053000 0.460250 0.537500
0.053000 0.455250 0.525750
0.053000 0.504250 0.549000
0.053000 0.507250 0.582250
0.053000 0.508250 0.610500
0.053000 0.507250 0.644750
0.053000 0.459250 0.677000
0.053000 0.508250 0.708250
0.053000 0.457250 0.784500
0.053000 0.459250 0.775750
0.053000 0.504250 0.805000
0.053000 0.504250 0.880250
0.053000 0.462250 0.865500
0.053000 0.461250 0.897750
0.053000 0.458250 0.924000
0.053000 0.506250 1.004250
0.053000 0.460250 1.038500
0.053000 0.506250 1.070750
0.053000 0.459250 1.101000
0.100000 0.537500 0.101000
0.100000 0.494500 0.084250
0.100000 0.486500 0.164500
0.100000 0.488500 0.144750
0.100000 0.485500 0.178000
0.100000 0.488500 0.254250
0.100000 0.489500 0.285500
0.100000 0.489500 0.274750
0.100000 0.534500 0.305000
0.100000 0.494500 0.333250
0.100000 0.492500 0.412500
0.100000 0.536500 0.397750
0.100000 0.490500 0.475000
0.100000 0.491500 0.459250
0.100000 0.486500 0.537500
0.100000 0.535500 0.525750
0.100000 0.538500 0.549000
0.100000 0.539500 0.582250
0.100000 0.538500 0.610500
0.100000 0.490500 0.644750
0.100000 0.539500 0.677000
0.100000 0.488500 0.708250
0.100000 0.490500 0.784500
0.100000 0.535500 0.775750
0.100000 0.535500 0.805000
0.100000 0.493500 0.880250
0.100000 0.492500 0.865500
0.100000 0.489500 0.897750
0.100000 0.537500 0.924000
0.100000 0.491500 1.004250
0.100000 0.537500 1.038500
0.100000 0.490500 1.070750
0.100000 0.537500 1.101000
0.057000 0.525750 0.101000
0.057000 0.517750 0.084250
0.057000 0.519750 0.164500
0.057000 0.516750 0.144750
0.057000 0.519750 0.178000
0.057000 0.520750 0.254250
0.057000 0.520750 0.285500
0.057000 0.565750 0.274750
0.057000 0.525750 0.305000
0.057000 0.523750 0.333250
0.057000 0.567750 0.412500
0.057000 0.521750 0.397750
0.057000 0.522750 0.475000
0.057000 0.517750 0.459250
0.057000 0.566750 0.537500
0.057000 0.569750 0.525750
0.057000 0.570750 0.549000
0.057000 0.569750 0.582250
0.057000 0.521750 0.610500
0.057000 0.570750 0.644750
0.057000 0.519750 0.677000
0.057000 0.521750 0.708250
0.057000 0.566750 0.784500
0.057000 0.566750 0.775750
0.057000 0.524750 0.805000
0.057000 0.523750 0.880250
0.057000 0.520750 0.865500
0.057000 0.568750 0.897750
0.057000 0.522750 0.924000
0.057000 0.568750 1.004250
0.057000 0.521750 1.038500
0.057000 0.568750 1.070750
0.057000 0.525750 1.101000
0.049000 0.549000 0.101000
0.049000 0.551000 0.084250
0.049000 0.548000 0.164500
0.049000 0.551000 0.144750
0.049000 0.552000 0.178000
0.049000 0.552000 0.254250
0.049000 0.597000 0.285500
0.049000 0.557000 0.274750
0.049000 0.555000 0.305000
0.049000 0.599000 0.333250
0.049000 0.553000 0.412500
0.049000 0.554000 0.397750
0.049000 0.549000 0.475000
0.049000 0.598000 0.459250
0.049000 0.601000 0.537500
0.049000 0.602000 0.525750
0.049000 0.601000 0.549000
0.049000 0.553000 0.582250
0.049000 0.602000 0.610500
0.049000 0.551000 0.644750
0.049000 0.553000 0.677000
0.049000 0.598000 0.708250
0.049000 0.598000 0.784500
0.049000 0.556000 0.775750
0.049000 0.555000 0.805000
0.049000 0.552000 0.880250
0.049000 0.600000 0.865500
0.049000 0.554000 0.897750
0.049000 0.600000 0.924000
0.049000 0.553000 1.004250
0.049000 0.600000 1.038500
0.049000 0.557000 1.070750
0.049000 0.549000 1.101000
0.051000 0.582250 0.101000
0.051000 0.579250 0.084250
0.051000 0.582250 0.164500
0.051000 0.583250 0.144750
0.051000 0.583250 0.178000
0.051000 0.628250 0.254250
0.051000 0.588250 0.285500
0.051000 0.586250 0.274750
0.051000 0.630250 0.305000
0.051000 0.584250 0.333250
0.051000 0.585250 0.412500
0.051000 0.580250 0.397750
0.051000 0.629250 0.475000
0.051000 0.632250 0.459250
0.051000 0.633250 0.537500
0.051000 0.632250 0.525750
0.051000 0.584250 0.549000
0.051000 0.633250 0.582250
0.051000 0.582250 0.610500
0.051000 0.584250 0.644750
0.051000 0.629250 0.677000
0.051000 0.629250 0.708250
0.051000 0.587250 0.784500
0.051000 0.586250 0.775750
0.051000 0.583250 0.805000
0.051000 0.631250 0.880250
0.051000 0.585250 0.865500
0.051000 0.631250 0.897750
0.051000 0.584250 0.924000
0.051000 0.631250 1.004250
0.051000 0.588250 1.038500
0.051000 0.580250 1.070750
0.051000 0.582250 1.101000
0.048000 0.610500 0.101000
0.048000 0.613500 0.084250
0.048000 0.614500 0.164500
0.048000 0.614500 0.144750
0.048000 0.659500 0.178000
0.048000 0.619500 0.254250
0.048000 0.617500 0.285500
0.048000 0.661500 0.274750
0.048000 0.615500 0.305000
0.048000 0.616500 0.333250
0.048000 0.611500 0.412500
0.048000 0.660500 0.397750
0.048000 0.663500 0.475000
0.048000 0.664500 0.459250
0.048000 0.663500 0.537500
0.048000 0.615500 0.525750
0.048000 0.664500 0.549000
0.048000 0.613500 0.582250
0.048000 0.615500 0.610500
0.048000 0.660500 0.644750
0.048000 0.660500 0.677000
0.048000 0.618500 0.708250
0.048000 0.617500 0.784500
0.048000 0.614500 0.775750
0.048000 0.662500 0.805000
0.048000 0.616500 0.880250
0.048000 0.662500 0.865500
0.048000 0.615500 0.897750
0.048000 0.662500 0.924000
0.048000 0.619500 1.004250
0.048000 0.611500 1.038500
0.048000 0.613500 1.070750
0.048000 0.610500 1.101000
0.051000 0.644750 0.101000
0.051000 0.645750 0.084250
0.051000 0.645750 0.164500
0.051000 0.690750 0.144750
0.051000 0.650750 0.178000
0.051000 0.648750 0.254250
0.051000 0.692750 0.285500
0.051000 0.646750 0.274750
0.051000 0.647750 0.305000
0.051000 0.642750 0.333250
0.051000 0.691750 0.412500
0.051000 0.694750 0.397750
0.051000 0.695750 0.475000
0.051000 0.694750 0.459250
0.051000 0.646750 0.537500
0.051000 0.695750 0.525750
0.051000 0.644750 0.549000
0.051000 0.646750 0.582250
0.051000 0.691750 0.610500
0.051000 0.691750 0.644750
0.051000 0.649750 0.677000
0.051000 0.648750 0.708250
0.051000 0.645750 0.784500
0.051000 0.693750 0.775750
0.051000 0.647750 0.805000
0.051000 0.693750 0.880250
0.051000 0.646750 0.865500
0.051000 0.693750 0.897750
0.051000 0.650750 0.924000
0.051000 0.642750 1.004250
0.051000 0.644750 1.038500
0.051000 0.641750 1.070750
0.051000 0.644750 1.101000
0.052000 0.677000 0.101000
0.052000 0.677000 0.084250
0.052000 0.722000 0.164500
0.052000 0.682000 0.144750
0.052000 0.680000 0.178000
0.052000 0.724000 0.254250
0.052000 0.678000 0.285500
0.052000 0.679000 0.274750
0.052000 0.674000 0.305000
0.052000 0.723000 0.333250
0.052000 0.726000 0.412500
0.052000 0.727000 0.397750
0.052000 0.726000 0.475000
0.052000 0.678000 0.459250
0.052000 0.727000 0.537500
0.052000 0.676000 0.525750
0.052000 0.678000 0.549000
0.052000 0.723000 0.582250
0.052000 0.723000 0.610500
0.052000 0.681000 0.644750
0.052000 0.680000 0.677000
0.052000 0.677000 0.708250
0.052000 0.725000 0.784500
0.052000 0.679000 0.775750
0.052000 0.725000 0.805000
0.052000 0.678000 0.880250
0.052000 0.725000 0.865500
0.052000 0.682000 0.897750
0.052000 0.674000 0.924000
0.052000 0.676000 1.004250
0.052000 0.673000 1.038500
0.052000 0.676000 1.070750
0.052000 0.677000 1.101000
0.052000 0.708250 0.101000
0.052000 0.753250 0.084250
0.052000 0.713250 0.164500
0.052000 0.711250 0.144750
0.052000 0.755250 0.178000
0.052000 0.709250 0.254250
0.052000 0.710250 0.285500
0.052000 0.705250 0.274750
0.052000 0.754250 0.305000
0.052000 0.757250 0.333250
0.052000 0.758250 0.412500
0.052000 0.757250 0.397750
0.052000 0.709250 0.475000
0.052000 0.758250 0.459250
0.052000 0.707250 0.537500
0.052000 0.709250 0.525750
0.052000 0.754250 0.549000
0.052000 0.754250 0.582250
0.052000 0.712250 0.610500
0.052000 0.711250 0.644750
0.052000 0.708250 0.677000
0.052000 0.756250 0.708250
0.052000 0.710250 0.784500
0.052000 0.756250 0.775750
0.052000 0.709250 0.805000
0.052000 0.756250 0.880250
0.052000 0.713250 0.865500
0.052000 0.705250 0.897750
0.052000 0.707250 0.924000
0.052000 0.704250 1.004250
0.052000 0.707250 1.038500
0.052000 0.708250 1.070750
0.052000 0.708250 1.101000
0.097000 0.784500 0.101000
0.097000 0.744500 0.084250
0.097000 0.742500 0.164500
0.097000 0.786500 0.144750
0.097000 0.740500 0.178000
0.097000 0.741500 0.254250
0.097000 0.736500 0.285500
0.097000 0.785500 0.274750
0.097000 0.788500 0.305000
0.097000 0.789500 0.333250
0.097000 0.788500 0.412500
0.097000 0.740500 0.397750
0.097000 0.789500 0.475000
0.097000 0.738500 0.459250
0.097000 0.740500 0.537500
0.097000 0.785500 0.525750
0.097000 0.785500 0.549000
0.097000 0.743500 0.582250
0.097000 0.742500 0.610500
0.097000 0.739500 0.644750
0.097000 0.787500 0.677000
0.097000 0.741500 0.708250
0.097000 0.787500 0.784500
0.097000 0.740500 0.775750
0.097000 0.787500 0.805000
0.097000 0.744500 0.880250
0.097000 0.736500 0.865500
0.097000 0.738500 0.897750
0.097000 0.735500 0.924000
0.097000 0.738500 1.004250
0.097000 0.739500 1.038500
0.097000 0.739500 1.070750
0.097000 0.784500 1.101000
0.057000 0.775750 0.101000
0.057000 0.773750 0.084250
0.057000 0.817750 0.164500
0.057000 0.771750 0.144750
0.057000 0.772750 0.178000
0.057000 0.767750 0.254250
0.057000 0.816750 0.285500
0.057000 0.819750 0.274750
0.057000 0.820750 0.305000
0.057000 0.819750 0.333250
0.057000 0.771750 0.412500
0.057000 0.820750 0.397750
0.057000 0.769750 0.475000
0.057000 0.771750 0.459250
0.057000 0.816750 0.537500
0.057000 0.816750 0.525750
0.057000 0.774750 0.549000
0.057000 0.773750 0.582250
0.057000 0.770750 0.610500
0.057000 0.818750 0.644750
0.057000 0.772750 0.677000
0.057000 0.818750 0.708250
0.057000 0.771750 0.784500
0.057000 0.818750 0.775750
0.057000 0.775750 0.805000
0.057000 0.767750 0.880250
0.057000 0.769750 0.865500
0.057000 0.766750 0.897750
0.057000 0.769750 0.924000
0.057000 0.770750 1.004250
0.057000 0.770750 1.038500
0.057000 0.815750 1.070750
0.057000 0.775750 1.101000
0.055000 0.805000 0.101000
0.055000 0.849000 0.084250
0.055000 0.803000 0.164500
0.055000 0.804000 0.144750
0.055000 0.799000 0.178000
0.055000 0.848000 0.254250
0.055000 0.851000 0.285500
0.055000 0.852000 0.274750
0.055000 0.851000 0.305000
0.055000 0.803000 0.333250
0.055000 0.852000 0.412500
0.055000 0.801000 0.397750
0.055000 0.803000 0.475000
0.055000 0.848000 0.459250
0.055000 0.848000 0.537500
0.055000 0.806000 0.525750
0.055000 0.805000 0.549000
0.055000 0.802000 0.582250
0.055000 0.850000 0.610500
0.055000 0.804000 0.644750
0.055000 0.850000 0.677000
0.055000 0.803000 0.708250
0.055000 0.850000 0.784500
0.055000 0.807000 0.775750
0.055000 0.799000 0.805000
0.055000 0.801000 0.880250
0.055000 0.798000 0.865500
0.055000 0.801000 0.897750
0.055000 0.802000 0.924000
0.055000 0.802000 1.004250
0.055000 0.847000 1.038500
0.055000 0.807000 1.070750
0.055000 0.805000 1.101000
0.099000 0.880250 0.101000
0.099000 0.834250 0.084250
0.099000 0.835250 0.164500
0.099000 0.830250 0.144750
0.099000 0.879250 0.178000
0.099000 0.882250 0.254250
0.099000 0.883250 0.285500
0.099000 0.882250 0.274750
0.099000 0.834250 0.305000
0.099000 0.883250 0.333250
0.099000 0.832250 0.412500
0.099000 0.834250 0.397750
0.099000 0.879250 0.475000
0.099000 0.879250 0.459250
0.099000 0.837250 0.537500
0.099000 0.836250 0.525750
0.099000 0.833250 0.549000
0.099000 0.881250 0.582250
0.099000 0.835250 0.610500
0.099000 0.881250 0.644750
0.099000 0.834250 0.677000
0.099000 0.881250 0.708250
0.099000 0.838250 0.784500
0.099000 0.830250 0.775750
0.099000 0.832250 0.805000
0.099000 0.829250 0.880250
0.099000 0.832250 0.865500
0.099000 0.833250 0.897750
0.099000 0.833250 0.924000
0.099000 0.878250 1.004250
0.099000 0.838250 1.038500
0.099000 0.836250 1.070750
0.099000 0.880250 1.101000
0.053000 0.865500 0.101000
0.053000 0.866500 0.084250
0.053000 0.861500 0.164500
0.053000 0.910500 0.144750
0.053000 0.913500 0.178000
0.053000 0.914500 0.254250
0.053000 0.913500 0.285500
0.053000 0.865500 0.274750
0.053000 0.914500 0.305000
0.053000 0.863500 0.333250
0.053000 0.865500 0.412500
0.053000 0.910500 0.397750
0.053000 0.910500 0.475000
0.053000 0.868500 0.459250
0.053000 0.867500 0.537500
0.053000 0.864500 0.525750
0.053000 0.912500 0.549000
0.053000 0.866500 0.582250
0.053000 0.912500 0.610500
0.053000 0.865500 0.644750
0.053000 0.912500 0.677000
0.053000 0.869500 0.708250
0.053000 0.861500 0.784500
0.053000 0.863500 0.775750
0.053000 0.860500 0.805000
0.053000 0.863500 0.880250
0.053000 0.864500 0.865500
