zy71366/tests/debug-files/dup.cube
# LUT File
TITLE "Test LUT - dup.cube"
LUT_3D_SIZE 9
DOMAIN_MIN 0.0 0.0 0.0
DOMAIN_MAX 1.0 1.0 1.0
0.101000 0.101000 0.101000
0.101000 0.053000 0.178000
0.101000 0.055000 0.305000
0.101000 0.100000 0.475000
0.101000 0.049000 0.549000
0.101000 0.052000 0.677000
0.101000 0.055000 0.805000
0.101000 0.049000 0.924000
0.101000 0.101000 1.101000
0.053000 0.178000 0.101000
0.053000 0.180000 0.178000
0.053000 0.225000 0.305000
0.053000 0.174000 0.475000
0.053000 0.177000 0.549000
0.053000 0.180000 0.677000
0.053000 0.174000 0.805000
0.053000 0.226000 0.924000
0.053000 0.178000 1.101000
0.055000 0.305000 0.101000
0.055000 0.350000 0.178000
0.055000 0.299000 0.305000
0.055000 0.302000 0.475000
0.055000 0.305000 0.549000
0.055000 0.299000 0.677000
0.055000 0.351000 0.805000
0.055000 0.303000 0.924000
0.055000 0.305000 1.101000
0.100000 0.475000 0.101000
0.100000 0.424000 0.178000
0.100000 0.427000 0.305000
0.100000 0.430000 0.475000
0.100000 0.424000 0.549000
0.100000 0.476000 0.677000
0.100000 0.428000 0.805000
0.100000 0.430000 0.924000
0.100000 0.475000 1.101000
0.049000 0.549000 0.101000
0.049000 0.552000 0.178000
0.049000 0.555000 0.305000
0.049000 0.549000 0.475000
0.049000 0.601000 0.549000
0.049000 0.553000 0.677000
0.049000 0.555000 0.805000
0.049000 0.600000 0.924000
0.049000 0.549000 1.101000
0.052000 0.677000 0.101000
0.052000 0.680000 0.178000
0.052000 0.674000 0.305000
0.052000 0.726000 0.475000
0.052000 0.678000 0.549000
0.052000 0.680000 0.677000
0.052000 0.725000 0.805000
0.052000 0.674000 0.924000
0.052000 0.677000 1.101000
0.055000 0.805000 0.101000
0.055000 0.799000 0.178000
0.055000 0.851000 0.305000
0.055000 0.803000 0.475000
0.055000 0.805000 0.549000
0.055000 0.850000 0.677000
0.055000 0.799000 0.805000
0.055000 0.802000 0.924000
0.055000 0.805000 1.101000
0.049000 0.924000 0.101000
0.049000 0.976000 0.178000
0.049000 0.928000 0.305000
0.049000 0.930000 0.475000
0.049000 0.975000 0.549000
0.049000 0.924000 0.677000
0.049000 0.927000 0.805000
0.049000 0.930000 0.924000
0.049000 0.924000 1.101000
0.101000 1.101000 0.101000
0.101000 1.053000 0.178000
0.101000 1.055000 0.305000
0.101000 1.100000 0.475000
0.101000 1.049000 0.549000
0.101000 1.052000 0.677000
0.101000 1.055000 0.805000
0.101000 1.049000 0.924000
0.101000 1.101000 1.101000
0.178000 0.101000 0.053000
0.178000 0.053000 0.180000
0.178000 0.055000 0.350000
0.178000 0.100000 0.424000
0.178000 0.049000 0.552000
0.178000 0.052000 0.680000
0.178000 0.055000 0.799000
0.178000 0.049000 0.976000
0.178000 0.101000 1.053000
0.180000 0.178000 0.053000
0.180000 0.180000 0.180000
0.180000 0.225000 0.350000
0.180000 0.174000 0.424000
0.180000 0.177000 0.552000
0.180000 0.180000 0.680000
0.180000 0.174000 0.799000
0.180000 0.226000 0.976000
0.180000 0.178000 1.053000
0.225000 0.305000 0.053000
0.225000 0.350000 0.180000
0.225000 0.299000 0.350000
0.225000 0.302000 0.424000
0.225000 0.305000 0.552000
0.225000 0.299000 0.680000
0.225000 0.351000 0.799000
0.225000 0.303000 0.976000
0.225000 0.305000 1.053000
0.174000 0.475000 0.053000
0.174000 0.424000 0.180000
0.174000 0.427000 0.350000
0.174000 0.430000 0.424000
0.174000 0.424000 0.552000
0.174000 0.476000 0.680000
0.174000 0.428000 0.799000
0.174000 0.430000 0.976000
0.174000 0.475000 1.053000
0.177000 0.549000 0.053000
0.177000 0.552000 0.180000
0.177000 0.555000 0.350000
0.177000 0.549000 0.424000
0.177000 0.601000 0.552000
0.177000 0.553000 0.680000
0.177000 0.555000 0.799000
0.177000 0.600000 0.976000
0.177000 0.549000 1.053000
0.180000 0.677000 0.053000
0.180000 0.680000 0.180000
0.180000 0.674000 0.350000
0.180000 0.726000 0.424000
0.180000 0.678000 0.552000
0.180000 0.680000 0.680000
0.180000 0.725000 0.799000
0.180000 0.674000 0.976000
0.180000 0.677000 1.053000
0.174000 0.805000 0.053000
0.174000 0.799000 0.180000
0.174000 0.851000 0.350000
0.174000 0.803000 0.424000
0.174000 0.805000 0.552000
0.174000 0.850000 0.680000
0.174000 0.799000 0.799000
0.174000 0.802000 0.976000
0.174000 0.805000 1.053000
0.226000 0.924000 0.053000
0.226000 0.976000 0.180000
0.226000 0.928000 0.350000
0.226000 0.930000 0.424000
0.226000 0.975000 0.552000
0.226000 0.924000 0.680000
0.226000 0.927000 0.799000
0.226000 0.930000 0.976000
0.226000 0.924000 1.053000
0.178000 1.101000 0.053000
0.178000 1.053000 0.180000
0.178000 1.055000 0.350000
0.178000 1.100000 0.424000
0.178000 1.049000 0.552000
0.178000 1.052000 0.680000
0.178000 1.055000 0.799000
0.178000 1.049000 0.976000
0.178000 1.101000 1.053000
0.305000 0.101000 0.055000
0.305000 0.053000 0.225000
0.305000 0.055000 0.299000
0.305000 0.100000 0.427000
0.305000 0.049000 0.555000
0.305000 0.052000 0.674000
0.305000 0.055000 0.851000
0.305000 0.049000 0.928000
0.305000 0.101000 1.055000
0.350000 0.178000 0.055000
0.350000 0.180000 0.225000
0.350000 0.225000 0.299000
0.350000 0.174000 0.427000
0.350000 0.177000 0.555000
0.350000 0.180000 0.674000
0.350000 0.174000 0.851000
0.350000 0.226000 0.928000
0.350000 0.178000 1.055000
0.299000 0.305000 0.055000
0.299000 0.350000 0.225000
0.299000 0.299000 0.299000
0.299000 0.302000 0.427000
0.299000 0.305000 0.555000
0.299000 0.299000 0.674000
0.299000 0.351000 0.851000
0.299000 0.303000 0.928000
0.299000 0.305000 1.055000
0.302000 0.475000 0.055000
0.302000 0.424000 0.225000
0.302000 0.427000 0.299000
0.302000 0.430000 0.427000
0.302000 0.424000 0.555000
0.302000 0.476000 0.674000
0.302000 0.428000 0.851000
0.302000 0.430000 0.928000
0.302000 0.475000 1.055000
0.305000 0.549000 0.055000
0.305000 0.552000 0.225000
0.305000 0.555000 0.299000
0.305000 0.549000 0.427000
0.305000 0.601000 0.555000
0.305000 0.553000 0.674000
0.305000 0.555000 0.851000
0.305000 0.600000 0.928000
0.305000 0.549000 1.055000
0.299000 0.677000 0.055000
0.299000 0.680000 0.225000
0.299000 0.674000 0.299000
0.299000 0.726000 0.427000
0.299000 0.678000 0.555000
0.299000 0.680000 0.674000
0.299000 0.725000 0.851000
0.299000 0.674000 0.928000
0.299000 0.677000 1.055000
0.351000 0.805000 0.055000
0.351000 0.799000 0.225000
0.351000 0.851000 0.299000
0.351000 0.803000 0.427000
0.351000 0.805000 0.555000
0.351000 0.850000 0.674000
0.351000 0.799000 0.851000
0.351000 0.802000 0.928000
0.351000 0.805000 1.055000
0.303000 0.924000 0.055000
0.303000 0.976000 0.225000
0.303000 0.928000 0.299000
0.303000 0.930000 0.427000
0.303000 0.975000 0.555000
0.303000 0.924000 0.674000
0.303000 0.927000 0.851000
0.303000 0.930000 0.928000
0.303000 0.924000 1.055000
0.305000 1.101000 0.055000
0.305000 1.053000 0.225000
0.305000 1.055000 0.299000
0.305000 1.100000 0.427000
0.305000 1.049000 0.555000
0.305000 1.052000 0.674000
0.305000 1.055000 0.851000
0.305000 1.049000 0.928000
0.305000 1.101000 1.055000
0.475000 0.101000 0.100000
0.475000 0.053000 0.174000
0.475000 0.055000 0.302000
0.475000 0.100000 0.430000
0.475000 0.049000 0.549000
0.475000 0.052000 0.726000
0.475000 0.055000 0.803000
0.475000 0.049000 0.930000
0.475000 0.101000 1.100000
0.424000 0.178000 0.100000
0.424000 0.180000 0.174000
0.424000 0.225000 0.302000
0.424000 0.174000 0.430000
0.424000 0.177000 0.549000
0.424000 0.180000 0.726000
0.424000 0.174000 0.803000
0.424000 0.226000 0.930000
0.424000 0.178000 1.100000
0.427000 0.305000 0.100000
0.427000 0.350000 0.174000
0.427000 0.299000 0.302000
0.427000 0.302000 0.430000
0.427000 0.305000 0.549000
0.427000 0.299000 0.726000
0.427000 0.351000 0.803000
0.427000 0.303000 0.930000
0.427000 0.305000 1.100000
0.430000 0.475000 0.100000
0.430000 0.424000 0.174000
0.430000 0.427000 0.302000
0.430000 0.430000 0.430000
0.430000 0.424000 0.549000
0.430000 0.476000 0.726000
0.430000 0.428000 0.803000
0.430000 0.430000 0.930000
0.430000 0.475000 1.100000
0.424000 0.549000 0.100000
0.424000 0.552000 0.174000
0.424000 0.555000 0.302000
0.424000 0.549000 0.430000
0.424000 0.601000 0.549000
0.424000 0.553000 0.726000
0.424000 0.555000 0.803000
0.424000 0.600000 0.930000
0.424000 0.549000 1.100000
0.476000 0.677000 0.100000
0.476000 0.680000 0.174000
0.476000 0.674000 0.302000
0.476000 0.726000 0.430000
0.476000 0.678000 0.549000
0.476000 0.680000 0.726000
0.476000 0.725000 0.803000
0.476000 0.674000 0.930000
0.476000 0.677000 1.100000
0.428000 0.805000 0.100000
0.428000 0.799000 0.174000
0.428000 0.851000 0.302000
0.428000 0.803000 0.430000
0.428000 0.805000 0.549000
0.428000 0.850000 0.726000
0.428000 0.799000 0.803000
0.428000 0.802000 0.930000
0.428000 0.805000 1.100000
0.430000 0.924000 0.100000
0.430000 0.976000 0.174000
0.430000 0.928000 0.302000
0.430000 0.930000 0.430000
0.430000 0.975000 0.549000
0.430000 0.924000 0.726000
0.430000 0.927000 0.803000
0.430000 0.930000 0.930000
0.430000 0.924000 1.100000
0.475000 1.101000 0.100000
0.475000 1.053000 0.174000
0.475000 1.055000 0.302000
0.475000 1.100000 0.430000
0.475000 1.049000 0.549000
0.475000 1.052000 0.726000
0.475000 1.055000 0.803000
0.475000 1.049000 0.930000
0.475000 1.101000 1.100000
0.549000 0.101000 0.049000
0.549000 0.053000 0.177000
0.549000 0.055000 0.305000
0.549000 0.100000 0.424000
0.549000 0.049000 0.601000
0.549000 0.052000 0.678000
0.549000 0.055000 0.805000
0.549000 0.049000 0.975000
0.549000 0.101000 1.049000
0.552000 0.178000 0.049000
0.552000 0.180000 0.177000
0.552000 0.225000 0.305000
0.552000 0.174000 0.424000
0.552000 0.177000 0.601000
0.552000 0.180000 0.678000
0.552000 0.174000 0.805000
0.552000 0.226000 0.975000
0.552000 0.178000 1.049000
0.555000 0.305000 0.049000
0.555000 0.350000 0.177000
0.555000 0.299000 0.305000
0.555000 0.302000 0.424000
0.555000 0.305000 0.601000
0.555000 0.299000 0.678000
0.555000 0.351000 0.805000
0.555000 0.303000 0.975000
0.555000 0.305000 1.049000
0.549000 0.475000 0.049000
0.549000 0.424000 0.177000
0.549000 0.427000 0.305000
0.549000 0.430000 0.424000
0.549000 0.424000 0.601000
0.549000 0.476000 0.678000
0.549000 0.428000 0.805000
0.549000 0.430000 0.975000
0.549000 0.475000 1.049000
0.601000 0.549000 0.049000
0.601000 0.552000 0.177000
0.601000 0.555000 0.305000
0.601000 0.549000 0.424000
0.601000 0.601000 0.601000
0.601000 0.553000 0.678000
0.601000 0.555000 0.805000
0.601000 0.600000 0.975000
0.601000 0.549000 1.049000
0.553000 0.677000 0.049000
0.553000 0.680000 0.177000
0.553000 0.674000 0.305000
0.553000 0.726000 0.424000
0.553000 0.678000 0.601000
0.553000 0.680000 0.678000
0.553000 0.725000 0.805000
0.553000 0.674000 0.975000
0.553000 0.677000 1.049000
0.555000 0.805000 0.049000
0.555000 0.799000 0.177000
0.555000 0.851000 0.305000
0.555000 0.803000 0.424000
0.555000 0.805000 0.601000
0.555000 0.850000 0.678000
0.555000 0.799000 0.805000
0.555000 0.802000 0.975000
0.555000 0.805000 1.049000
0.600000 0.924000 0.049000
0.600000 0.976000 0.177000
0.600000 0.928000 0.305000
0.600000 0.930000 0.424000
0.600000 0.975000 0.601000
0.600000 0.924000 0.678000
0.600000 0.927000 0.805000
0.600000 0.930000 0.975000
0.600000 0.924000 1.049000
0.549000 1.101000 0.049000
0.549000 1.053000 0.177000
0.549000 1.055000 0.305000
0.549000 1.100000 0.424000
0.549000 1.049000 0.601000
0.549000 1.052000 0.678000
0.549000 1.055000 0.805000
0.549000 1.049000 0.975000
0.549000 1.101000 1.049000
0.677000 0.101000 0.052000
0.677000 0.053000 0.180000
0.677000 0.055000 0.299000
0.677000 0.100000 0.476000
0.677000 0.049000 0.553000
0.677000 0.052000 0.680000
0.677000 0.055000 0.850000
0.677000 0.049000 0.924000
0.677000 0.101000 1.052000
0.680000 0.178000 0.052000
0.680000 0.180000 0.180000
0.680000 0.225000 0.299000
0.680000 0.174000 0.476000
0.680000 0.177000 0.553000
0.680000 0.180000 0.680000
0.680000 0.174000 0.850000
0.680000 0.226000 0.924000
0.680000 0.178000 1.052000
0.674000 0.305000 0.052000
0.674000 0.350000 0.180000
0.674000 0.299000 0.299000
0.674000 0.302000 0.476000
0.674000 0.305000 0.553000
0.674000 0.299000 0.680000
0.674000 0.351000 0.850000
0.674000 0.303000 0.924000
0.674000 0.305000 1.052000
0.726000 0.475000 0.052000
0.726000 0.424000 0.180000
0.726000 0.427000 0.299000
0.726000 0.430000 0.476000
0.726000 0.424000 0.553000
0.726000 0.476000 0.680000
0.726000 0.428000 0.850000
0.726000 0.430000 0.924000
0.726000 0.475000 1.052000
0.678000 0.549000 0.052000
0.678000 0.552000 0.180000
0.678000 0.555000 0.299000
0.678000 0.549000 0.476000
0.678000 0.601000 0.553000
0.678000 0.553000 0.680000
0.678000 0.555000 0.850000
0.678000 0.600000 0.924000
0.678000 0.549000 1.052000
0.680000 0.677000 0.052000
0.680000 0.680000 0.180000
0.680000 0.674000 0.299000
0.680000 0.726000 0.476000
0.680000 0.678000 0.553000
0.680000 0.680000 0.680000
0.680000 0.725000 0.850000
0.680000 0.674000 0.924000
0.680000 0.677000 1.052000
0.725000 0.805000 0.052000
0.725000 0.799000 0.180000
0.725000 0.851000 0.299000
0.725000 0.803000 0.476000
0.725000 0.805000 0.553000
0.725000 0.850000 0.680000
0.725000 0.799000 0.850000
0.725000 0.802000 0.924000
0.725000 0.805000 1.052000
0.674000 0.924000 0.052000
0.674000 0.976000 0.180000
0.674000 0.928000 0.299000
0.674000 0.930000 0.476000
0.674000 0.975000 0.553000
0.674000 0.924000 0.680000
0.674000 0.927000 0.850000
0.674000 0.930000 0.924000
0.674000 0.924000 1.052000
0.677000 1.101000 0.052000
0.677000 1.053000 0.180000
0.677000 1.055000 0.299000
0.677000 1.100000 0.476000
0.677000 1.049000 0.553000
0.677000 1.052000 0.680000
0.677000 1.055000 0.850000
0.677000 1.049000 0.924000
0.677000 1.101000 1.052000
0.805000 0.101000 0.055000
0.805000 0.053000 0.174000
0.805000 0.055000 0.351000
0.805000 0.100000 0.428000
0.805000 0.049000 0.555000
0.805000 0.052000 0.725000
0.805000 0.055000 0.799000
0.805000 0.049000 0.927000
0.805000 0.101000 1.055000
0.799000 0.178000 0.055000
0.799000 0.180000 0.174000
0.799000 0.225000 0.351000
0.799000 0.174000 0.428000
0.799000 0.177000 0.555000
0.799000 0.180000 0.725000
0.799000 0.174000 0.799000
0.799000 0.226000 0.927000
0.799000 0.178000 1.055000
0.851000 0.305000 0.055000
0.851000 0.350000 0.174000
0.851000 0.299000 0.351000
0.851000 0.302000 0.428000
0.851000 0.305000 0.555000
0.851000 0.299000 0.725000
0.851000 0.351000 0.799000
0.851000 0.303000 0.927000
0.851000 0.305000 1.055000
0.803000 0.475000 0.055000
0.803000 0.424000 0.174000
0.803000 0.427000 0.351000
0.803000 0.430000 0.428000
0.803000 0.424000 0.555000
0.803000 0.476000 0.725000
0.803000 0.428000 0.799000
0.803000 0.430000 0.927000
0.803000 0.475000 1.055000
0.805000 0.549000 0.055000
0.805000 0.552000 0.174000
0.805000 0.555000 0.351000
0.805000 0.549000 0.428000
0.805000 0.601000 0.555000
0.805000 0.553000 0.725000
0.805000 0.555000 0.799000
0.805000 0.600000 0.927000
0.805000 0.549000 1.055000
0.850000 0.677000 0.055000
0.850000 0.680000 0.174000
0.850000 0.674000 0.351000
0.850000 0.726000 0.428000
0.850000 0.678000 0.555000
0.850000 0.680000 0.725000
0.850000 0.725000 0.799000
0.850000 0.674000 0.927000
0.850000 0.677000 1.055000
0.799000 0.805000 0.055000
0.799000 0.799000 0.174000
0.799000 0.851000 0.351000
0.799000 0.803000 0.428000
0.799000 0.805000 0.555000
0.799000 0.850000 0.725000
0.799000 0.799000 0.799000
0.799000 0.802000 0.927000
0.799000 0.805000 1.055000
0.802000 0.924000 0.055000
0.802000 0.976000 0.174000
0.802000 0.928000 0.351000
0.802000 0.930000 0.428000
0.802000 0.975000 0.555000
0.802000 0.924000 0.725000
0.802000 0.927000 0.799000
0.802000 0.930000 0.927000
0.802000 0.924000 1.055000
0.805000 1.101000 0.055000
0.805000 1.053000 0.174000
0.805000 1.055000 0.351000
0.805000 1.100000 0.428000
0.805000 1.049000 0.555000
0.805000 1.052000 0.725000
0.805000 1.055000 0.799000
0.805000 1.049000 0.927000
0.805000 1.101000 1.055000
0.924000 0.101000 0.049000
0.924000 0.053000 0.226000
0.924000 0.055000 0.303000
0.924000 0.100000 0.430000
0.924000 0.049000 0.600000
0.924000 0.052000 0.674000
0.924000 0.055000 0.802000
0.924000 0.049000 0.930000
0.924000 0.101000 1.049000
0.976000 0.178000 0.049000
0.976000 0.180000 0.226000
0.976000 0.225000 0.303000
0.976000 0.174000 0.430000
0.976000 0.177000 0.600000
0.976000 0.180000 0.674000
0.976000 0.174000 0.802000
0.976000 0.226000 0.930000
0.976000 0.178000 1.049000
0.928000 0.305000 0.049000
0.928000 0.350000 0.226000
0.928000 0.299000 0.303000
0.928000 0.302000 0.430000
0.928000 0.305000 0.600000
0.928000 0.299000 0.674000
0.928000 0.351000 0.802000
0.928000 0.303000 0.930000
0.928000 0.305000 1.049000
0.930000 0.475000 0.049000
0.930000 0.424000 0.226000
0.930000 0.427000 0.303000
0.930000 0.430000 0.430000
0.930000 0.424000 0.600000
0.930000 0.476000 0.674000
0.930000 0.428000 0.802000
0.930000 0.430000 0.930000
0.930000 0.475000 1.049000
0.975000 0.549000 0.049000
0.975000 0.552000 0.226000
0.975000 0.555000 0.303000
0.975000 0.549000 0.430000
0.975000 0.601000 0.600000
0.975000 0.553000 0.674000
0.975000 0.555000 0.802000
0.975000 0.600000 0.930000
0.975000 0.549000 1.049000
0.924000 0.677000 0.049000
0.924000 0.680000 0.226000
0.924000 0.674000 0.303000
0.924000 0.726000 0.430000
0.924000 0.678000 0.600000
0.924000 0.680000 0.674000
0.924000 0.725000 0.802000
0.924000 0.674000 0.930000
0.924000 0.677000 1.049000
0.927000 0.805000 0.049000
0.927000 0.799000 0.226000
0.927000 0.851000 0.303000
0.927000 0.803000 0.430000
0.927000 0.805000 0.600000
0.927000 0.850000 0.674000
0.927000 0.799000 0.802000
0.927000 0.802000 0.930000
0.927000 0.805000 1.049000
0.930000 0.924000 0.049000
0.930000 0.976000 0.226000
0.930000 0.928000 0.303000
0.930000 0.930000 0.430000
0.930000 0.975000 0.600000
0.930000 0.924000 0.674000
0.930000 0.927000 0.802000
0.930000 0.930000 0.930000
0.930000 0.924000 1.049000
0.924000 1.101000 0.049000
0.924000 1.053000 0.226000
0.924000 1.055000 0.303000
0.924000 1.100000 0.430000
0.924000 1.049000 0.600000
0.924000 1.052000 0.674000
0.924000 1.055000 0.802000
0.924000 1.049000 0.930000
0.924000 1.101000 1.049000
1.101000 0.101000 0.101000
1.101000 0.053000 0.178000
1.101000 0.055000 0.305000
1.101000 0.100000 0.475000
1.101000 0.049000 0.549000
1.101000 0.052000 0.677000
1.101000 0.055000 0.805000
1.101000 0.049000 0.924000
1.101000 0.101000 1.101000
1.053000 0.178000 0.101000
1.053000 0.180000 0.178000
1.053000 0.225000 0.305000
1.053000 0.174000 0.475000
1.053000 0.177000 0.549000
1.053000 0.180000 0.677000
1.053000 0.174000 0.805000
1.053000 0.226000 0.924000
1.053000 0.178000 1.101000
1.055000 0.305000 0.101000
1.055000 0.350000 0.178000
1.055000 0.299000 0.305000
1.055000 0.302000 0.475000
1.055000 0.305000 0.549000
1.055000 0.299000 0.677000
1.055000 0.351000 0.805000
1.055000 0.303000 0.924000
1.055000 0.305000 1.101000
1.100000 0.475000 0.101000
1.100000 0.424000 0.178000
1.100000 0.427000 0.305000
1.100000 0.430000 0.475000
1.100000 0.424000 0.549000
1.100000 0.476000 0.677000
1.100000 0.428000 0.805000
1.100000 0.430000 0.924000
1.100000 0.475000 1.101000
1.049000 0.549000 0.101000
1.049000 0.552000 0.178000
1.049000 0.555000 0.305000
1.049000 0.549000 0.475000
1.049000 0.601000 0.549000
1.049000 0.553000 0.677000
1.049000 0.555000 0.805000
1.049000 0.600000 0.924000
1.049000 0.549000 1.101000
1.052000 0.677000 0.101000
1.052000 0.680000 0.178000
1.052000 0.674000 0.305000
1.052000 0.726000 0.475000
1.052000 0.678000 0.549000
1.052000 0.680000 0.677000
1.052000 0.725000 0.805000
1.052000 0.674000 0.924000
1.052000 0.677000 1.101000
1.055000 0.805000 0.101000
1.055000 0.799000 0.178000
1.055000 0.851000 0.305000
1.055000 0.803000 0.475000
1.055000 0.805000 0.549000
1.055000 0.850000 0.677000
1.055000 0.799000 0.805000
1.055000 0.802000 0.924000
1.055000 0.805000 1.101000
1.049000 0.924000 0.101000
1.049000 0.976000 0.178000
1.049000 0.928000 0.305000
1.049000 0.930000 0.475000
1.049000 0.975000 0.549000
1.049000 0.924000 0.677000
1.049000 0.927000 0.805000
1.049000 0.930000 0.924000
1.049000 0.924000 1.101000
1.101000 1.101000 0.101000
1.101000 1.053000 0.178000
1.101000 1.055000 0.305000
1.101000 1.100000 0.475000
1.101000 1.049000 0.549000
1.101000 1.052000 0.677000
1.101000 1.055000 0.805000
1.101000 1.049000 0.924000
1.101000 1.101000 1.101000
