zy71366/tests/debug-files/dup.cube
# LUT File
TITLE "Test LUT - dup.cube"
LUT_3D_SIZE 5
DOMAIN_MIN 0.0 0.0 0.0
DOMAIN_MAX 1.0 1.0 1.0
0.101000 0.101000 0.101000
0.101000 0.055000 0.305000
0.101000 0.049000 0.549000
0.101000 0.055000 0.805000
0.101000 0.101000 1.101000
0.055000 0.305000 0.101000
0.055000 0.299000 0.305000
0.055000 0.305000 0.549000
0.055000 0.351000 0.805000
0.055000 0.305000 1.101000
0.049000 0.549000 0.101000
0.049000 0.555000 0.305000
0.049000 0.601000 0.549000
0.049000 0.555000 0.805000
0.049000 0.549000 1.101000
0.055000 0.805000 0.101000
0.055000 0.851000 0.305000
0.055000 0.805000 0.549000
0.055000 0.799000 0.805000
0.055000 0.805000 1.101000
0.101000 1.101000 0.101000
0.101000 1.055000 0.305000
0.101000 1.049000 0.549000
0.101000 1.055000 0.805000
0.101000 1.101000 1.101000
0.305000 0.101000 0.055000
0.305000 0.055000 0.299000
0.305000 0.049000 0.555000
0.305000 0.055000 0.851000
0.305000 0.101000 1.055000
0.299000 0.305000 0.055000
0.299000 0.299000 0.299000
0.299000 0.305000 0.555000
0.299000 0.351000 0.851000
0.299000 0.305000 1.055000
0.305000 0.549000 0.055000
0.305000 0.555000 0.299000
0.305000 0.601000 0.555000
0.305000 0.555000 0.851000
0.305000 0.549000 1.055000
0.351000 0.805000 0.055000
0.351000 0.851000 0.299000
0.351000 0.805000 0.555000
0.351000 0.799000 0.851000
0.351000 0.805000 1.055000
0.305000 1.101000 0.055000
0.305000 1.055000 0.299000
0.305000 1.049000 0.555000
0.305000 1.055000 0.851000
0.305000 1.101000 1.055000
0.549000 0.101000 0.049000
0.549000 0.055000 0.305000
0.549000 0.049000 0.601000
0.549000 0.055000 0.805000
0.549000 0.101000 1.049000
0.555000 0.305000 0.049000
0.555000 0.299000 0.305000
0.555000 0.305000 0.601000
0.555000 0.351000 0.805000
0.555000 0.305000 1.049000
0.601000 0.549000 0.049000
0.601000 0.555000 0.305000
0.601000 0.601000 0.601000
0.601000 0.555000 0.805000
0.601000 0.549000 1.049000
0.555000 0.805000 0.049000
0.555000 0.851000 0.305000
0.555000 0.805000 0.601000
0.555000 0.799000 0.805000
0.555000 0.805000 1.049000
0.549000 1.101000 0.049000
0.549000 1.055000 0.305000
0.549000 1.049000 0.601000
0.549000 1.055000 0.805000
0.549000 1.101000 1.049000
0.805000 0.101000 0.055000
0.805000 0.055000 0.351000
0.805000 0.049000 0.555000
0.805000 0.055000 0.799000
0.805000 0.101000 1.055000
0.851000 0.305000 0.055000
0.851000 0.299000 0.351000
0.851000 0.305000 0.555000
0.851000 0.351000 0.799000
0.851000 0.305000 1.055000
0.805000 0.549000 0.055000
0.805000 0.555000 0.351000
0.805000 0.601000 0.555000
0.805000 0.555000 0.799000
0.805000 0.549000 1.055000
0.799000 0.805000 0.055000
0.799000 0.851000 0.351000
0.799000 0.805000 0.555000
0.799000 0.799000 0.799000
0.799000 0.805000 1.055000
0.805000 1.101000 0.055000
0.805000 1.055000 0.351000
0.805000 1.049000 0.555000
0.805000 1.055000 0.799000
0.805000 1.101000 1.055000
1.101000 0.101000 0.101000
1.101000 0.055000 0.305000
1.101000 0.049000 0.549000
1.101000 0.055000 0.805000
1.101000 0.101000 1.101000
1.055000 0.305000 0.101000
1.055000 0.299000 0.305000
1.055000 0.305000 0.549000
1.055000 0.351000 0.805000
1.055000 0.305000 1.101000
1.049000 0.549000 0.101000
1.049000 0.555000 0.305000
1.049000 0.601000 0.549000
1.049000 0.555000 0.805000
1.049000 0.549000 1.101000
1.055000 0.805000 0.101000
1.055000 0.851000 0.305000
1.055000 0.805000 0.549000
1.055000 0.799000 0.805000
1.055000 0.805000 1.101000
1.101000 1.101000 0.101000
1.101000 1.055000 0.305000
1.101000 1.049000 0.549000
1.101000 1.055000 0.805000
1.101000 1.101000 1.101000
